Numix-GalliumOS/22/categories/preferences-system-network.svg

<?xml version="1.0" encoding="UTF-8" standalone="no"?>
<svg
   xmlns:dc="http://purl.org/dc/elements/1.1/"
   xmlns:cc="http://creativecommons.org/ns#"
   xmlns:rdf="http://www.w3.org/1999/02/22-rdf-syntax-ns#"
   xmlns:svg="http://www.w3.org/2000/svg"
   xmlns="http://www.w3.org/2000/svg"
   xmlns:sodipodi="http://sodipodi.sourceforge.net/DTD/sodipodi-0.dtd"
   xmlns:inkscape="http://www.inkscape.org/namespaces/inkscape"
   viewBox="0 0 22 22"
   id="svg2"
   version="1.1"
   inkscape:version="0.91 r"
   sodipodi:docname="preferences-system-network.svg"
   width="22"
   height="22">
  <metadata
     id="metadata24">
    <rdf:RDF>
      <cc:Work
         rdf:about="">
        <dc:format>image/svg+xml</dc:format>
        <dc:type
           rdf:resource="http://purl.org/dc/dcmitype/StillImage" />
        <dc:title />
      </cc:Work>
    </rdf:RDF>
  </metadata>
  <defs
     id="defs22" />
  <sodipodi:namedview
     pagecolor="#ffffff"
     bordercolor="#666666"
     borderopacity="1"
     objecttolerance="10"
     gridtolerance="10"
     guidetolerance="10"
     inkscape:pageopacity="0"
     inkscape:pageshadow="2"
     inkscape:window-width="1920"
     inkscape:window-height="1056"
     id="namedview20"
     showgrid="true"
     inkscape:zoom="27.812866"
     inkscape:cx="15.08366"
     inkscape:cy="7.9513479"
     inkscape:window-x="0"
     inkscape:window-y="24"
     inkscape:window-maximized="1"
     inkscape:current-layer="svg2">
    <inkscape:grid
       type="xygrid"
       id="grid4152" />
  </sodipodi:namedview>
  <path
     style="color:#000000;line-height:normal;opacity:0.8;fill:#c0956e"
     d="m 5.5000115,14.98395 c -9e-6,0 -1.65e-5,0 -1.65e-5,0 l 0,3.5e-4 c 0,0 9e-6,0 1.9e-5,0 l 1.56e-4,0 0,5e-5 1.51e-4,0 0,-5e-5 1.555e-4,0 c 9.5e-6,0 1.85e-5,0 1.85e-5,0 l 0,-3.5e-4 c 0,0 -9e-6,0 -1.85e-5,0 l -4.625e-4,0 -2.5e-6,0 z m 3.3e-5,5e-5 4e-4,0 0,2.5e-4 -4e-4,0 0,-2.5e-4 z m 5.05e-5,3.5e-4 0,5e-5 3e-4,0 0,-5e-5 -3e-4,0 z"
     id="path8"
     inkscape:connector-curvature="0" />
  <path
     style="color:#000000;line-height:normal;fill:#c0956e"
     d="M 7.538236,3 C 7.245071,3.031215 6.998431,3.307776 7.000007,3.604174 l 0,4.791652 C 7.000039,8.7121615 7.286244,8.9999495 7.600821,9 l 2.403252,0 1.92548,0 2.469634,0 C 14.713763,8.9999495 14.999969,8.7121615 15,8.395826 L 15,3.604174 C 14.999969,3.2878385 14.713763,3.0000505 14.399187,3 L 7.600821,3 Z"
     id="path10"
     inkscape:connector-curvature="0" />
  <path
     style="color:#000000;line-height:normal;fill:#c0956e"
     d="m 2.5382364,13 c -0.2931655,0.03121 -0.5398056,0.307776 -0.5382289,0.604174 l 0,4.791652 C 2.000039,18.712162 2.2862442,18.99995 2.6008212,19 l 2.4032523,0 1.9254795,0 2.469634,0 C 9.713763,18.99995 9.999969,18.712162 10,18.395826 l 0,-4.791652 C 9.999969,13.287838 9.713763,13.000051 9.399187,13 l -6.7983658,0 z"
     id="path12"
     inkscape:connector-curvature="0" />
  <path
     style="color:#000000;line-height:normal;fill:#c0956e"
     d="m 12.538236,13 c -0.293165,0.03121 -0.539805,0.307776 -0.538229,0.604174 l 0,4.791652 c 3.2e-5,0.316336 0.286237,0.604124 0.600814,0.604174 l 2.403252,0 1.92548,0 2.469634,0 C 19.713763,18.99995 19.999969,18.712162 20,18.395826 l 0,-4.791652 C 19.999969,13.287838 19.713763,13.000051 19.399187,13 l -6.798366,0 z"
     id="path14"
     inkscape:connector-curvature="0" />
  <g
     style="fill:#c0956e"
     id="g16"
     transform="matrix(0.5,0,0,0.5,-0.99999999,-503.1811)">
    <path
       inkscape:connector-curvature="0"
       id="path18"
       transform="translate(0,1004.3622)"
       d="m 23,21 0,2 -10,0 0,4 2,0 0,-2 18,0 0,2 2,0 0,-4 -10,0 0,-2 z" />
  </g>
</svg>

<svg xmlns="http://www.w3.org/2000/svg" viewBox="0 0 22 22">
 <path d="m 5.5 14.984 c 0 0 0 0 0 0 l 0 0 c 0 0 0 0 0 0 l 0 0 0 0 0 0 0 0 0 0 c 0 0 0 0 0 0 l 0 0 c 0 0 0 0 0 0 l 0 0 0 0 z m 0 0 0 0 0 0 0 0 0 0 z m 0 0 0 0 0 0 0 0 0 0 z" style="fill:#c0956e;opacity:0.8;color:#000"/>
 <path d="m 7.538 3 c -0.293 0.031 -0.54 0.308 -0.538 0.604 l 0 4.792 c 0 0.316 0.286 0.604 0.601 0.604 l 2.403 0 1.925 0 2.47 0 c 0.315 0 0.601 -0.288 0.601 -0.604 l 0 -4.792 c 0 -0.316 -0.286 -0.604 -0.601 -0.604 l -6.798 0" style="fill:#c0956e;color:#000"/>
 <path d="m 2.538 13 c -0.293 0.031 -0.54 0.308 -0.538 0.604 l 0 4.792 c 0 0.316 0.286 0.604 0.601 0.604 l 2.403 0 1.925 0 2.47 0 c 0.315 0 0.601 -0.288 0.601 -0.604 l 0 -4.792 c 0 -0.316 -0.286 -0.604 -0.601 -0.604 l -6.798 0 z" style="fill:#c0956e;color:#000"/>
 <path d="m 12.538 13 c -0.293 0.031 -0.54 0.308 -0.538 0.604 l 0 4.792 c 0 0.316 0.286 0.604 0.601 0.604 l 2.403 0 1.925 0 2.47 0 c 0.315 0 0.601 -0.288 0.601 -0.604 l 0 -4.792 c 0 -0.316 -0.286 -0.604 -0.601 -0.604 l -6.798 0 z" style="fill:#c0956e;color:#000"/>
 <g transform="matrix(0.5,0,0,0.5,-0.99999999,-503.1811)" style="fill:#c0956e">
  <path transform="translate(0,1004.3622)" d="m 23 21 0 2 -10 0 0 4 2 0 0 -2 18 0 0 2 2 0 0 -4 -10 0 0 -2 z"/>
 </g>
</svg>
